X:928
T:Barbro Pers Polska
R:Polska
Z:Henrik Åberg, 090103
O:Älvdalen, Dalarna
S:Svenska Låtar Dalarna
M:3/4
L:1/8
K:F
|:c>f- fag2-|g2e/2f/2e/2c/2d2-|d>B- B>d fd|1d>c B/2A/2B/2d/2c2:|2d>c B/2A/2B/2d/2 cz/2B/2|]
K:Gm
|:G>B- B>d f>e|d>c- c>B- B>A|G>B- B>d f>e|d>c- c>B- B>A|G2G>B A/2B/2A/2B/2|1^F>GG2cB:|2^F>GG4 |]
(:musicend:)

Vilket nummer har denna i SvL? (SvL Dalarna nr 593)


(:music:)
